X:1
T:Chipping Ongar, 88.88.86.86
T:Chipping Ongar, 88.88.86.86
T:Bowness Briggs (1858–1905)
T:Public Domain Courtesy of the Cyber Hymnal™
C:Bowness Briggs (1858–1905)
Z:Public Domain
Z:Courtesy of the Cyber Hymnal™
%%score ( 1 2 ) ( 3 4 )
L:1/8
Q:1/4=108
M:4/4
K:Bb
V:1 treble 
V:2 treble 
V:3 bass 
V:4 bass 
V:1
 [DF]2 x8 | [DF]2 ([B,D][CE]) [DF]2 [DB]2 | [Fd]2 [Ec]2 [DB]2 [Fd]2 | [Fc]2 [FA]2 [=EB]2 [EG]2 | %4
 [Fc]2 [=Ec]2 !fermata!F2 [DF]2 | [DF]2 (GA) [FB]2 [Fc]2 | [Fd]2 [=EB]2 [Fc]2 [Fc]2 | %7
 [Fd]2 [B=e]2 [Af]2 [FA]2 | [=EB]2 [EG]2 !fermata![CF]2 F2 | [Fc]6 F2 | [Fd]6 [FB]2 | [Fe]4 [Fd]4 | %12
 [Fc]6 [Fc]2 | [Fd]2 [Bf]2 [Bf]2 [B=e]2 | [Af]6 [Fc]2 | [Fd]2 [Fd]2 [GB]2 [GB]2 | %16
 [Fe]2 [Fe]2 [Fc]2 [Fd]2 | [GB]2 [EG]2 [Ec]2 [EA]2 | [DB]6 |] %19
V:2
 x10 | x8 | x8 | x8 | x4 F2 x2 | x2 E2 x4 | x8 | x8 | x6 F2 | x6 F2 | x8 | x8 | x8 | x8 | x8 | x8 | %16
 x8 | x8 | x6 |] %19
V:3
 [B,,B,]2 [B,,B,]2 [B,,F,]2 [B,,B,]2 [B,,B,]2 | [F,B,]2 [F,A,]2 [B,,B,]2 B,2 | %2
 [A,C]2 [F,C]2 [G,C]2 [B,C]2 | [A,C]2 [C,B,]2 !fermata![F,A,]2 [B,,B,]2 | %4
 [B,,B,]2 [B,,B,]2 [D,B,]2 [F,A,]2 | B,2 [C,G,]2 [F,A,]2 [F,A,]2 | B,2 [G,C]2 [F,C]2 [C,C]2 | %7
 [C,G,]2 [C,B,]2 !fermata![F,A,]2 F,2 | [F,E]6 F,2 | [F,B,]6 [F,D]2 | [F,C]4 [F,B,]4 | %11
 [F,A,]6 [F,A,]2 | A,2 [G,C]2 [G,C]2 [C,C]2 | [F,C]6 [F,A,]2 | [B,,B,]2 [B,,B,]2 [E,B,]2 [E,B,]2 | %15
 [F,A,]2 [F,C]2 [F,A,]2 B,2 | [E,B,]2 [E,B,]2 [F,A,]2 [F,C]2 | [B,,B,]6 x2 | x6 |] %19
V:4
 x10 | x6 B,2 | x8 | x8 | x8 | B,2 x6 | B,2 x6 | x6 F,2 | x6 F,2 | x8 | x8 | x8 | A,2 x6 | x8 | %14
 x8 | x6 B,2 | x8 | x8 | x6 |] %19

